X: 2
T:Brueira
M:6/8
L:1/8
Q:200
C:X.L. Foxo
R:Muiñeira
B:Os Segredos da Gaita. FOXO
K:CMin
C |: F2G A2G | F3- Fc_d | cBA  G2 B |
A3/2F3/2- F2C | F2G A2G | F3- Fc_d | cBA GF=E |1 F3- F2 C :|2
F3- Fc_d |: cBA GF=E | FGA GF=E| FGA G3- |
G3- Gc_d | cBA GF=E | FGA GF=E | FGA GF=E |1 F3- Fc_d :|2
F3- FAG |: FGA B2A | G3- GcB | AGF G2 A | G3/2F3/2- FAG |
FGA B2A | G3- GcB |AGF G2 =E |1 F3- FAG |2 F3- F2C |
FGA Bc_d | cBA GF=E | FGA GBA | G3- G2C |
FGA Bc_d | cBA GF=E | FGA BAG |1 F3- F2C :|2 F3-F2C||

